X:1
T: Jubilee at Eindhoven
N:
C:Tune is John Drury by O'Carolan
S:
A:
O:
R:
M:6/8
K:D
I:speed 165
%W: A1
% voice 1 (1 lines, 28 notes)
K:D
M:6/8
L:1/16
A2 |d2 e2 d2 d2 c2 B2 A4 G2 F4 G2 E4 e2 e2 f2 e2 c4 B2 A6 |A4 f2 f2 g2 f2 e4 d2 c4 A2
%W:
% voice 1 (1 lines, 28 notes)
f4 g2 a4 d2 c4 d2 c4 B2 |A2 F2 A2 A2 F2 A2 B2 c2 d2 e2 c2 A2 a2 g2 f2 e2 d2 c2 d6 d6 |
%W: A2
% voice 1 (1 lines, 27 notes)
d2 e2 d2 d2 c2 B2 A4 G2 F4 G2 E4 e2 e2 f2 e2 c4 B2 A6 |A4 f2 f2 g2 f2 e4 d2 c4 A2
%W:
% voice 1 (1 lines, 28 notes)
f4 g2 a4 d2 c4 d2 c4 B2 |A2 F2 A2 A2 F2 A2 B2 c2 d2 e2 c2 A2 a2 g2 f2 e2 d2 c2 d6 d6 |
%W: B
% voice 1 (1 lines, 38 notes)
A2 B2 A2 G2 A2 G2 F2 G2 F2 E4 E2 E4 E2 E4 G2 F2 D2 G2 F2 A2 F2 |D6 d6 e2 f2 e2 e2 c2 A2 A4 A2 f4 f2 g4 f2 e2 d2 c2 |
%W:
% voice 1 (1 lines, 38 notes)
d4 d2 d2 e2 d2 B2 A2 G2 B2 c2 d2 c4 d2 e2 g2 f2 e2 f2 d2 c2 B2 A2 |d4 F2 G4 B2 A4 G2 F2 G2 A2 B2 A2 G2 F4 E2 D6 D4 ||
